!!!OTL: AUF DEM BERGE AUF DEM BERGE
!!!ARE: Europa, Mitteleuropa, Deutschland, Bacharach am Rhein
!!!SCT: K2254
!!!YEM: Copyright 1995, estate of Helmut Schaffrath.
**kern
*ICvox
*Ivox
*M3/4
*k[]
*C:
{8g
8g
=1
4g
4e
8g
8g
=2
4g
4e}
{4g
=3
4f
4d
4f
=4
4e
4r}
{8g
8g
=5
4g
4e
8g
8g
=6
4g
4e}
{4g
=7
4f
4d
4f
=8
4e
4r}
{8g
8g
=9
4g
4e
8g
8g
=10
4g
4e}
{4g
=11
4f
4d
4f
=12
4e
4r}
{8g
8g
=13
4g
4e
8g
8g
=14
4g
4e}
{4g
=15
4f
4d
4f
=16
4e
4r}
==
!!!AGN: Kinder - Lied, Reigen, Tanz, Nachahmungs - Spiel
!!!ONB: ESAC (Essen Associative Code) Database: KINDER
!!!AMT: simple triple
!!!AIN: vox
!!!EED: Helmut Schaffrath
!!!EEV: 1.0
*-
